X: 25361
T: Maple Leaf, The
R: reel
M: 4/4
K: Edorian
D|:E2 EF GE E2|B2 AB AGED|E2 EF GFGA|BddB AGED|
E/F/G FA GE E2|B2 AB AGED|Beed BAGB|1 c2 Bc AGED:|2 c2 Bc AGE2||
|:d2gf efg2|d2 gf ed c2|d2gf efg2|a2 ge fdec|
d2gf efg2|d2 gf ed B2|a2 ge fd B2|1 c2 Bc AGE2:|2 c2 Bc AGED||

